icons/align-vertical-justify-center.svg

<svg width="24" height="24" viewBox="0 0 24 24" fill="none" xmlns="http://www.w3.org/2000/svg">
<path d="M4 19C4 17.3431 5.07452 16 6.4 16L17.6 16C18.9255 16 20 17.3431 20 19C20 20.6569 18.9255 22 17.6 22L6.4 22C5.07452 22 4 20.6569 4 19Z" stroke="black" stroke-width="2" stroke-linecap="round" stroke-linejoin="round"/>
<path d="M22 12L2 12" stroke="black" stroke-width="2" stroke-linecap="round" stroke-linejoin="round"/>
<path d="M8.80002 8C7.47454 8 6.40002 6.65685 6.40002 5C6.40002 3.34314 7.47454 2 8.80002 2L15.2 2C16.5255 2 17.6 3.34315 17.6 5C17.6 6.65686 16.5255 8 15.2 8L8.80002 8Z" stroke="black" stroke-width="2" stroke-linecap="round" stroke-linejoin="round"/>
</svg>

<svg xmlns="http://www.w3.org/2000/svg" width="24" height="24" viewBox="0 0 24 24" fill="none" stroke="currentColor" stroke-width="2" stroke-linecap="round" stroke-linejoin="round">
<path d="M4 19c0-1.657 1.075-3 2.4-3h11.2c1.325 0 2.4 1.343 2.4 3s-1.075 3-2.4 3H6.4C5.075 22 4 20.657 4 19m18-7H2m6.8-4C7.475 8 6.4 6.657 6.4 5s1.075-3 2.4-3h6.4c1.326 0 2.4 1.343 2.4 3s-1.075 3-2.4 3z"/>
</svg>
